src/images/svg/phone-orange.svg

<svg width="18" height="18" viewBox="0 0 18 18" fill="none" xmlns="http://www.w3.org/2000/svg">
<path d="M16.3425 12.0983C15.215 12.0983 14.1242 11.915 13.1067 11.585C12.7858 11.475 12.4283 11.5575 12.1808 11.805L10.7417 13.6108C8.1475 12.3733 5.71833 10.0358 4.42583 7.35L6.21333 5.82833C6.46083 5.57167 6.53417 5.21417 6.43333 4.89333C6.09417 3.87583 5.92 2.785 5.92 1.6575C5.92 1.1625 5.5075 0.75 5.0125 0.75H1.84083C1.34583 0.75 0.75 0.97 0.75 1.6575C0.75 10.1733 7.83583 17.25 16.3425 17.25C16.9933 17.25 17.25 16.6725 17.25 16.1683V13.0058C17.25 12.5108 16.8375 12.0983 16.3425 12.0983Z" fill="#FF862F"/>
</svg>

<svg width="18" height="18" fill="none" xmlns="http://www.w3.org/2000/svg"><path d="M16.343 12.098a10.49 10.49 0 01-3.236-.513.896.896 0 00-.926.22l-1.44 1.806c-2.593-1.238-5.023-3.575-6.315-6.261l1.787-1.522a.935.935 0 00.22-.935 10.223 10.223 0 01-.513-3.236.916.916 0 00-.907-.907H1.84C1.346.75.75.97.75 1.657c0 8.516 7.086 15.593 15.593 15.593.65 0 .907-.578.907-1.082v-3.162a.916.916 0 00-.907-.908z" fill="#FF862F"/></svg>
